X:107
T: ES STAND DIE HERBERG AN DEM RHEIN
N: Z0107
O: Europa, Mitteleuropa, Deutschland, Herzogtum Berg
R: Sagen - Lied, Romanze
M: 2/4
L: 1/16
K: D
A,2 | D3E=F2G2 | A_BAGA2z2 |
=F2FGA2A2 | D2D2G4 |
E2E2=F2E2 | E4D2z2 |
E2EE=F2EE | E2D2D2
=C2 | E2EE=F2A2 | A2^G2A2

@@@ Tune index: 9865
